flaticon/symbols/ingenuity-1.svg

<svg xmlns="http://www.w3.org/2000/svg" width="32" height="32" viewBox="0 0 24 24">
    <path d="M 12 0 C 6.410156 0 1.863281 5.382812 1.863281 12 C 1.863281 18.617188 6.410156 24 12 24 C 17.589844 24 22.136719 18.617188 22.136719 12 C 22.136719 5.382812 17.589844 0 12 0 Z M 12 23.171875 C 6.867188 23.171875 2.691406 18.160156 2.691406 12 C 2.691406 5.839844 6.867188 0.828125 12 0.828125 C 17.132812 0.828125 21.308594 5.839844 21.308594 12 C 21.308594 18.160156 17.132812 23.171875 12 23.171875 Z M 12 23.171875"/>
    <path d="M 12 2.898438 C 7.894531 2.898438 4.550781 7.074219 4.550781 12.207031 C 4.550781 17.339844 7.894531 21.515625 12 21.515625 C 16.105469 21.515625 19.449219 17.339844 19.449219 12.207031 C 19.449219 7.074219 16.105469 2.898438 12 2.898438 Z M 18.597656 11.585938 L 17.378906 11.585938 L 17.378906 11.230469 C 17.378906 10.742188 16.984375 10.34375 16.496094 10.34375 L 15.308594 10.34375 L 15.308594 10.203125 C 15.308594 9.597656 14.816406 9.101562 14.214844 9.101562 L 13.65625 9.101562 L 13.65625 7.917969 C 13.65625 7.429688 13.257812 7.035156 12.769531 7.035156 L 12.414062 7.035156 L 12.414062 3.75 C 15.710938 4.015625 18.355469 7.375 18.597656 11.585938 Z M 14.484375 14.070312 L 14.484375 14.210938 C 14.484375 14.363281 14.363281 14.484375 14.214844 14.484375 L 9.785156 14.484375 C 9.636719 14.484375 9.515625 14.363281 9.515625 14.210938 L 9.515625 10.203125 C 9.515625 10.050781 9.636719 9.929688 9.785156 9.929688 L 14.214844 9.929688 C 14.363281 9.929688 14.484375 10.050781 14.484375 10.203125 Z M 11.230469 16.550781 C 11.199219 16.550781 11.171875 16.527344 11.171875 16.496094 L 11.171875 15.308594 L 12.828125 15.308594 L 12.828125 16.496094 C 12.828125 16.527344 12.800781 16.550781 12.769531 16.550781 Z M 8.691406 13.242188 L 7.503906 13.242188 C 7.472656 13.242188 7.449219 13.214844 7.449219 13.183594 L 7.449219 11.230469 C 7.449219 11.199219 7.472656 11.171875 7.503906 11.171875 L 8.691406 11.171875 Z M 12.769531 7.863281 C 12.800781 7.863281 12.828125 7.886719 12.828125 7.917969 L 12.828125 9.101562 L 11.171875 9.101562 L 11.171875 7.917969 C 11.171875 7.886719 11.199219 7.863281 11.230469 7.863281 Z M 15.308594 11.171875 L 16.496094 11.171875 C 16.527344 11.171875 16.550781 11.199219 16.550781 11.230469 L 16.550781 13.183594 C 16.550781 13.214844 16.527344 13.242188 16.496094 13.242188 L 15.308594 13.242188 Z M 11.585938 3.75 L 11.585938 7.035156 L 11.230469 7.035156 C 10.742188 7.035156 10.34375 7.429688 10.34375 7.917969 L 10.34375 9.101562 L 9.785156 9.101562 C 9.183594 9.101562 8.691406 9.597656 8.691406 10.203125 L 8.691406 10.34375 L 7.503906 10.34375 C 7.015625 10.34375 6.621094 10.742188 6.621094 11.230469 L 6.621094 11.585938 L 5.402344 11.585938 C 5.644531 7.375 8.289062 4.015625 11.585938 3.75 Z M 5.386719 12.414062 L 6.621094 12.414062 L 6.621094 13.183594 C 6.621094 13.671875 7.015625 14.070312 7.503906 14.070312 L 8.691406 14.070312 L 8.691406 14.210938 C 8.691406 14.816406 9.183594 15.308594 9.785156 15.308594 L 10.34375 15.308594 L 10.34375 16.496094 C 10.34375 16.984375 10.742188 17.378906 11.230469 17.378906 L 11.585938 17.378906 L 11.585938 20.664062 C 8.183594 20.390625 5.472656 16.816406 5.386719 12.414062 Z M 12.414062 20.664062 L 12.414062 17.378906 L 12.769531 17.378906 C 13.257812 17.378906 13.65625 16.984375 13.65625 16.496094 L 13.65625 15.308594 L 14.214844 15.308594 C 14.816406 15.308594 15.308594 14.816406 15.308594 14.210938 L 15.308594 14.070312 L 16.496094 14.070312 C 16.984375 14.070312 17.378906 13.671875 17.378906 13.183594 L 17.378906 12.414062 L 18.613281 12.414062 C 18.527344 16.816406 15.816406 20.390625 12.414062 20.664062 Z M 12.414062 20.664062"/>
</svg>

<svg xmlns="http://www.w3.org/2000/svg" width="32" height="32" viewBox="0 0 24 24">
    <path d="M12 0C6.41 0 1.863 5.383 1.863 12S6.41 24 12 24c5.59 0 10.137-5.383 10.137-12S17.59 0 12 0zm0 23.172c-5.133 0-9.309-5.012-9.309-11.172C2.691 5.84 6.867.828 12 .828c5.133 0 9.309 5.012 9.309 11.172 0 6.16-4.176 11.172-9.309 11.172zm0 0"/>
    <path d="M12 2.898c-4.105 0-7.45 4.176-7.45 9.309 0 5.133 3.345 9.309 7.45 9.309s7.45-4.176 7.45-9.309c0-5.133-3.345-9.309-7.45-9.309zm6.598 8.688h-1.22v-.356a.885.885 0 0 0-.882-.886H15.31v-.14c0-.606-.493-1.102-1.094-1.102h-.559V7.918a.885.885 0 0 0-.886-.883h-.356V3.75c3.297.266 5.941 3.625 6.184 7.836zm-4.114 2.484v.14a.27.27 0 0 1-.27.274H9.786a.27.27 0 0 1-.27-.273v-4.008a.27.27 0 0 1 .27-.273h4.43a.27.27 0 0 1 .27.273zm-3.254 2.48c-.03 0-.058-.023-.058-.054V15.31h1.656v1.187c0 .031-.027.055-.058.055zm-2.539-3.308H7.504c-.031 0-.055-.027-.055-.058V11.23c0-.03.024-.058.055-.058H8.69zm4.079-5.379c.03 0 .058.024.058.055v1.184h-1.656V7.918c0-.031.027-.055.058-.055zm2.539 3.309h1.187c.031 0 .055.027.055.058v1.954c0 .03-.024.058-.055.058H15.31zM11.586 3.75v3.285h-.356a.885.885 0 0 0-.886.883v1.184h-.559c-.601 0-1.094.496-1.094 1.101v.14H7.504a.885.885 0 0 0-.883.887v.356H5.402c.243-4.211 2.887-7.57 6.184-7.836zm-6.2 8.664h1.235v.77c0 .488.395.886.883.886H8.69v.14c0 .606.493 1.099 1.094 1.099h.559v1.187c0 .488.398.883.886.883h.356v3.285c-3.402-.273-6.113-3.848-6.2-8.25zm7.028 8.25V17.38h.356a.885.885 0 0 0 .886-.883V15.31h.559c.601 0 1.094-.493 1.094-1.098v-.14h1.187a.885.885 0 0 0 .883-.887v-.77h1.234c-.086 4.402-2.797 7.977-6.199 8.25zm0 0"/>
</svg>
